X:1
T:Greeting, CM
T:Greeting, CM
T:Alfred George Wathall, 1905
T:Public Domain Courtesy of the Cyber Hymnal™
C:Alfred George Wathall, 1905
Z:Public Domain
Z:Courtesy of the Cyber Hymnal™
%%score ( 1 2 ) ( 3 4 )
L:1/8
Q:1/4=110
M:4/4
K:Db
V:1 treble 
V:2 treble 
V:3 bass 
V:4 bass 
V:1
 [Fd]2 | [EA]2 [CG]2 [DF]2 d2 | [EA]2 [CG]2 [DF]2 [EF]2 | [DB]2 (dc) F2 [E=A]2 | [DB]6 [FB]2 | %5
 [EB]3 [EB] [Ec]2 [Ed]2 | [Ec]3 [EB] [FA]2 [Fd]2 | [DE]3 [DE] [CF]2 [CG]2 | [DF]6 |] %9
V:2
 x2 | x6 (DF) | x8 | x2 G2 F2 x2 | x8 | x8 | x8 | x8 | x6 |] %9
V:3
 [D,A,]2 | [C,A,]2 [A,,A,]2 [D,A,]2 A,2 | [C,A,]2 [A,,A,]2 [D,A,]2 [C,=A,]2 | %3
 [B,,B,]2 (B,C) [F,D]2 [F,C]2 | B,6 [A,D]2 | [=G,D]3 [G,D] [G,C]2 [G,B,]2 | %6
 (A,2 B,)[G,C] [F,D]2 [D,A,]2 | [G,B,]3 [=G,B,] A,2 [A,,A,]2 | [D,A,]6 |] %9
V:4
 x2 | x6 (F,D,) | x8 | x2 E,2 x4 | B,6 x2 | x8 | G,3 x5 | x4 A,2 x2 | x6 |] %9

